X:1
L:1/8
Q:1/4=135
M:7/8
K:C
|:""^A""""G"" G2 AB""C"" c/B/AG |""G"" B2 Bd c/B/AG | G2 AB""C"" c/B/AG |""G"" B2 Bd c/B/AG |""G"" G2 BA GF/E/D | 
""C"" E2- E2""F"" cBA |""G"" G2 BA GF/E/D |""C"" E2- E2 McMc z |""F"" cc BA""G"" GF/E/D |""C"" E2- E2""F"" cBA | 
""G"" G2 BA GF/E/D |""C"" E2- E2 McMc z ::""^B""""C"" E2 FE ^D/E/FE | G2 AG ^F/G/AG | E2 FE ^D/E/FE | 
""G"" G2 ^F/G/A/B/""C"" cc z ::""^C""""C"" G/^F/G/A/ G/F/G/A/ G E2 |""G"" GG FF""C"" E/F/G z | 
 G/^F/G/A/ G/F/G/A/ G E2 |""G"" GG FF""C"" EE z :|[K:G]""^D""""G"" B2 cB/c/""D"" B A2 |""G"" G2 G>D G/A/ B2 | 
 B2 cB/c/""D"" B A2 |""G"" G2 G>D GG z |""G"" [Bd]2 [ce][Bd]/[ce]/""D"" [Bd] [Ac]2 | 
""G"" [GB]2 [GB]>[DG] [GB]/[Ac]/ [Bd]2 | [Bd]2 [ce][Bd]/[ce]/""D"" [Bd] [Ac]2 | 
""G"" [GB]2 [GB]>[DG] [GB][GB] z ||[K:C]""^E""""G"" GA _BA GF/E/D |""C"" E2- E2""F"" cBA |""G"" G2 BA GF/E/D | 
""C"" E2- E2 McMc z |""F"" cc BA""G"" GF/E/D |""C"" E2- E2""F"" cBA |""G"" G2 BA GF/E/D |""C"" E2- E2 McMc z ||
